X:9
T:Birthday Rag
M:C|
L:1/8
C: Paul Gitlitz 1984
R:Reel
B:Giblitz Fancy, 141 Brand New Old Time Fiddle Tunes Vol. 2
N:For my Birthday
D:"To Have and To Hold" available at www.glitchless.net
K:D
"D"f2fa fede|fefa fed2|"Am"AB=cB cBAB|"C"=cBcd cBA2|! 
"D"f2fa  fede|fefa fed2|"A7"cBAc BABc|1"D"d2[df][df][d3f3]e:|2"D"d4"F#"^A4|!
|:"Bm"B2Bc BAFA|BABc BAF2|"E"E2EF EDB,D|EDEF EDB,2|!
"Bm"B2Bc BAFA|BABc BAF2|1"E"^GFEG FEFG|"A7"A4"F#"^A4:|2"A"AA2AB2c2|"D"d4D4|]
